X: 1
T:Paddy O'Brien's Hornpipe
M:4/4
L:1/8
C:Paddy O'Brien
R:hornpipe
Z:Billy McComiskey
K:D
(3dc=c|BgdB Ae=cA|(3GFG (3BAG FdAF|GDEF GA (3Bcd|cded fed=c|
BgdB Ae=cA|(3GFG (3BAG FdAF|GDEF GA (3Bcd|1 cdef g2:|2 cdef g3
|:B|A ~d3 e ~d3|B ~e3 feef|(3gfe (3fed edcB|(3ABA ^GB AFG^G|
A ~d3 e ~d3|B ~e3 feef|gfed cABc|(3ded ce d3:||
